X:1
T:Sweet Ann Fair. Roose.0500
L:1/8
Q:1/4=100
M:4/4
I:linebreak $
K:Gmin
V:1 treble 
V:1
 D | G2 Bc d3 z/ g/ | d<B A>G B>A G>^F | (G2{A)} B>c d3 z/ g/ | d<B A>G G3 D | %5
 (G2{A)} B>c d3 z/ g/ |$ d<B AG BA G>^F | G2 B>c d3 z/ g/ | d<B A>G G3 :: F | B2 d<B f>d cB | %11
 c<A G>F{AB} c2 BA |$ B<G B<G d2 cB | AG ^F=E D3 z/ D/ | G2 BG A^F =ED | A>B c<A BA G^F | %16
 G2 Bd g<e dc |$ d<B A>G G2 :| %18
